X:510
T:The Kind Choreographer
C:Colin Hume, 2020
L:1/8
M:6/8
R:Jig
S:Colin Hume's website,  colinhume.com  - chords can also be printed below the stave.
Q:3/8=112
%%MIDI ratio 3 1
%%MIDI bassprog 70      % Bassoon
%%MIDI chordprog 70     % Bassoon
%%MIDI program 71       % Clarinet
K:C
P:A
|: G | "C"G>^FG c2G | "/"e3- e2G | "C"G>^FG "C7"c2G | "F"A3- A2A |
"F"A>Bc c3 | "C/E"c>de e3 |1 "Dm"f>ef d2c | "G"d3- d2 :|2 "Dm"f2e "G7"d>cB | "C"c3-c2 [K:G] ||
P:B
|: c | "G"B2G d2G | "C"e>dc "G"d2B | "Am"c2A "/G"e2c | "D/F#"a2g "/D"f>ed | "C"e2e e>fg | "G"d2c B3 |
"D"A2A A>Bc | "Em"B2A G2F | "C"E3 E>FG | "D"F3 F>GA | "G"B>cB "D"A>GF | "G"G3- G2 :|

